flags/language/en-au.svg

<svg width="512" height="512" viewBox="0 0 512 512" fill="none" xmlns="http://www.w3.org/2000/svg">
<rect width="512" height="512" fill="var(--flag-palette-navy, #002266)"/>
<path d="M184.383 370.496L198.433 399.874L230.16 392.541L215.952 421.843L241.466 442.076L209.699 449.236L209.788 481.8L184.383 461.427L158.979 481.8L159.068 449.236L127.3 442.076L152.815 421.843L138.605 392.541L170.334 399.874L184.383 370.496Z" fill="var(--flag-palette-white, #eeeeee)"/>
<path d="M413.284 426.17L420.309 440.859L436.173 437.192L429.068 451.843L441.826 461.96L425.942 465.54L425.986 481.822L413.284 471.635L400.582 481.822L400.626 465.54L384.743 461.96L397.5 451.843L390.396 437.192L406.259 440.859L413.284 426.17Z" fill="var(--flag-palette-white, #eeeeee)"/>
<path d="M347.933 270.344L354.957 285.034L370.821 281.366L363.717 296.017L376.474 306.134L360.591 309.714L360.634 325.996L347.933 315.809L335.231 325.996L335.274 309.714L319.391 306.134L332.148 296.017L325.044 281.366L340.908 285.034L347.933 270.344Z" fill="var(--flag-palette-white, #eeeeee)"/>
<path d="M413.284 181.3L420.309 195.99L436.173 192.323L429.069 206.974L441.825 217.09L425.942 220.671L425.986 236.953L413.284 226.766L400.582 236.953L400.626 220.671L384.743 217.09L397.499 206.974L390.396 192.323L406.259 195.99L413.284 181.3Z" fill="var(--flag-palette-white, #eeeeee)"/>
<path d="M470.368 248.083L477.392 262.773L493.256 259.105L486.152 273.756L498.909 283.873L483.025 287.454L483.069 303.735L470.368 293.549L457.666 303.735L457.709 287.454L441.826 283.873L454.583 273.756L447.479 259.105L463.342 262.773L470.368 248.083Z" fill="var(--flag-palette-white, #eeeeee)"/>
<path d="M429.55 325.996L435.075 343.002H452.957L438.49 353.513L444.017 370.518L429.55 360.008L415.084 370.518L420.609 353.513L406.143 343.002H424.024L429.55 325.996Z" fill="var(--flag-palette-white, #eeeeee)"/>
<path d="M3.25494e-05 512L0.000168863 -6.20511e-05L496 -2.00882e-05L320 176L320 192L288 224L224 224L224 288L3.25494e-05 512Z" fill="var(--flag-palette-white, #eeeeee)"/>
<path d="M192 144L192 -7.32413e-05L47.9996 -9.8419e-05L192 144Z" fill="var(--flag-palette-blue, #0052b4)"/>
<path d="M464 -2.56833e-05L320 144L320 -5.0861e-05L464 -2.56833e-05Z" fill="var(--flag-palette-blue, #0052b4)"/>
<path d="M144 192L0.000151696 48.0004L0.000100198 192L144 192Z" fill="var(--flag-palette-blue, #0052b4)"/>
<path d="M6.61197e-05 320L4.09421e-05 463.999L144 320L6.61197e-05 320Z" fill="var(--flag-palette-blue, #0052b4)"/>
<path d="M224 288L288 224L288 -5.64561e-05L224 -6.76462e-05L224 224L8.87539e-05 224L7.17148e-05 288L224 288Z" fill="var(--flag-palette-bright-red, #d80027)"/>
<path d="M0.000139871 32.0004L160 192L192 192L0.000148391 0.000428262L0.000139871 32.0004Z" fill="var(--flag-palette-bright-red, #d80027)"/>
<path d="M480 -2.28857e-05L320 160L320 192L512 -1.72907e-05L480 -2.28857e-05Z" fill="var(--flag-palette-bright-red, #d80027)"/>
</svg>

<svg xmlns="http://www.w3.org/2000/svg" width="512" height="512" fill="none"><g clip-path="url(#a)"><path fill="#026" d="M0 0h512v512H0z"/><path fill="#EEE" d="m184.4 370.5 14 29.4 31.8-7.4-14.2 29.3 25.5 20.3-31.8 7.1v32.6l-25.3-20.4-25.4 20.4v-32.6l-31.7-7.1 25.5-20.3-14.2-29.3 31.7 7.4zm228.9 55.7 7 14.7 15.9-3.7-7.1 14.6 12.7 10.2-15.9 3.5v16.3l-12.6-10.2-12.7 10.2v-16.3l-15.9-3.5 12.8-10.2-7.1-14.6 15.9 3.7zM348 270.3l7 14.7 15.8-3.6-7 14.6 12.7 10.1-16 3.6.1 16.3-12.7-10.2-12.7 10.2v-16.3l-15.8-3.6 12.7-10-7-14.7 15.8 3.6zm65.3-89 7 14.7 15.9-3.7L429 207l12.7 10-15.9 3.7V237l-12.6-10.2-12.7 10.2v-16.3l-15.9-3.6 12.8-10.1-7.1-14.7 15.9 3.7zm57.1 66.7 7 14.8 15.9-3.7-7.1 14.7 12.7 10-15.9 3.7v16.2l-12.6-10.2-12.7 10.2v-16.2l-15.9-3.6 12.8-10.1-7.1-14.7 15.8 3.7zm-40.8 78 5.5 17H453l-14.5 10.5 5.5 17-14.4-10.5-14.5 10.5 5.5-17-14.5-10.5h18zM0 512V0h496L320 176v16l-32 32h-64v64z"/><path fill="var(--flag-palette-blue, #0052b4)" d="M192 144V0H48zM464 0 320 144V0zM144 192 0 48v144zM0 320v144l144-144z"/><path fill="var(--flag-palette-bright-red, #d80027)" d="m224 288 64-64V0h-64v224H0v64z"/><path fill="var(--flag-palette-bright-red, #d80027)" d="m0 32 160 160h32L0 0zM480 0 320 160v32L512 0z"/></g><defs><clipPath id="a"><path fill="#fff" d="M0 0h512v512H0z"/></clipPath></defs></svg>
